data/sheikah/1.svg

<!-- Generated by IcoMoon.io -->
<svg version="1.1" xmlns="http://www.w3.org/2000/svg" width="1024" height="1024" viewBox="0 0 1024 1024">
<title></title>
<g id="icomoon-ignore">
</g>
<path d="M153.5 153.5h119.5v119.5h-119.5v-119.5zM751 751h-597.5l119.5 119.5h478l119.5-119.5v-478l-119.5-119.5v597.5zM452.5 153.5v298.5h-299v119.5h299l119.5-119.5v-298.5h-119.5z"></path>
</svg>

<svg xmlns="http://www.w3.org/2000/svg" width="1024" height="1024" viewBox="0 0 1024 1024">
  <title/>
  <path d="M153.5 153.5H273V273H153.5zM751 751H153.5L273 870.5h478L870.5 751V273L751 153.5zM452.5 153.5V452h-299v119.5h299L572 452V153.5z"/>
</svg>
